dist/assets/img/ceo/2.svg

<svg width="216" height="315" viewBox="0 0 216 315" fill="none" xmlns="http://www.w3.org/2000/svg">
<path d="M125.749 175.763L52.2106 90.5253L25.4694 117.266L77.2804 175.763L25.4694 234.259L52.2106 261L125.749 175.763ZM209.315 175.763L135.777 90.5253L109.035 117.266L160.846 175.763L109.035 234.259L135.777 261L209.315 175.763Z" fill="#F4F6F9"/>
<path d="M125.749 175.763L127.263 174.456L128.39 175.763L127.263 177.069L125.749 175.763ZM52.2106 90.5253L50.7963 89.111L52.3186 87.5888L53.7249 89.2188L52.2106 90.5253ZM25.4694 117.266L23.9722 118.592L22.7241 117.183L24.0552 115.852L25.4694 117.266ZM77.2804 175.763L78.7775 174.437L79.9521 175.763L78.7775 177.089L77.2804 175.763ZM25.4694 234.259L24.0552 235.673L22.7241 234.342L23.9722 232.933L25.4694 234.259ZM52.2106 261L53.7249 262.306L52.3186 263.936L50.7963 262.414L52.2106 261ZM209.315 175.763L210.829 174.456L211.956 175.763L210.829 177.069L209.315 175.763ZM135.777 90.5253L134.362 89.111L135.885 87.5888L137.291 89.2188L135.777 90.5253ZM109.035 117.266L107.538 118.592L106.29 117.183L107.621 115.852L109.035 117.266ZM160.846 175.763L162.344 174.437L163.518 175.763L162.344 177.089L160.846 175.763ZM109.035 234.259L107.621 235.673L106.29 234.342L107.538 232.933L109.035 234.259ZM135.777 261L137.291 262.306L135.885 263.936L134.362 262.414L135.777 261ZM124.234 177.069L50.6962 91.8317L53.7249 89.2188L127.263 174.456L124.234 177.069ZM53.6248 91.9395L26.8836 118.681L24.0552 115.852L50.7963 89.111L53.6248 91.9395ZM26.9666 115.94L78.7775 174.437L75.7832 177.089L23.9722 118.592L26.9666 115.94ZM78.7775 177.089L26.9666 235.585L23.9722 232.933L75.7832 174.437L78.7775 177.089ZM26.8836 232.845L53.6248 259.586L50.7963 262.414L24.0552 235.673L26.8836 232.845ZM50.6962 259.694L124.234 174.456L127.263 177.069L53.7249 262.306L50.6962 259.694ZM207.8 177.069L134.262 91.8317L137.291 89.2188L210.829 174.456L207.8 177.069ZM137.191 91.9395L110.45 118.681L107.621 115.852L134.362 89.111L137.191 91.9395ZM110.533 115.94L162.344 174.437L159.349 177.089L107.538 118.592L110.533 115.94ZM162.344 177.089L110.533 235.585L107.538 232.933L159.349 174.437L162.344 177.089ZM110.45 232.845L137.191 259.586L134.362 262.414L107.621 235.673L110.45 232.845ZM134.262 259.694L207.8 174.456L210.829 177.069L137.291 262.306L134.262 259.694Z" fill="white"/>
<path d="M115.749 171.763L42.2106 86.5253L15.4694 113.266L67.2804 171.763L15.4694 230.259L42.2106 257L115.749 171.763ZM199.315 171.763L125.777 86.5253L99.0355 113.266L150.846 171.763L99.0355 230.259L125.777 257L199.315 171.763Z" fill="white"/>
<path d="M115.749 171.763L117.263 170.456L118.39 171.763L117.263 173.069L115.749 171.763ZM42.2106 86.5253L40.7963 85.111L42.3186 83.5888L43.7249 85.2188L42.2106 86.5253ZM15.4694 113.266L13.9722 114.592L12.7241 113.183L14.0552 111.852L15.4694 113.266ZM67.2804 171.763L68.7775 170.437L69.9521 171.763L68.7775 173.089L67.2804 171.763ZM15.4694 230.259L14.0552 231.673L12.7241 230.342L13.9722 228.933L15.4694 230.259ZM42.2106 257L43.7249 258.306L42.3186 259.936L40.7963 258.414L42.2106 257ZM199.315 171.763L200.829 170.456L201.956 171.763L200.829 173.069L199.315 171.763ZM125.777 86.5253L124.362 85.111L125.885 83.5888L127.291 85.2188L125.777 86.5253ZM99.0355 113.266L97.5383 114.592L96.2901 113.183L97.6212 111.852L99.0355 113.266ZM150.846 171.763L152.344 170.437L153.518 171.763L152.344 173.089L150.846 171.763ZM99.0355 230.259L97.6212 231.673L96.2901 230.342L97.5383 228.933L99.0355 230.259ZM125.777 257L127.291 258.306L125.885 259.936L124.362 258.414L125.777 257ZM114.234 173.069L40.6962 87.8317L43.7249 85.2188L117.263 170.456L114.234 173.069ZM43.6248 87.9395L16.8836 114.681L14.0552 111.852L40.7963 85.111L43.6248 87.9395ZM16.9666 111.94L68.7775 170.437L65.7832 173.089L13.9722 114.592L16.9666 111.94ZM68.7775 173.089L16.9666 231.585L13.9722 228.933L65.7832 170.437L68.7775 173.089ZM16.8836 228.845L43.6248 255.586L40.7963 258.414L14.0552 231.673L16.8836 228.845ZM40.6962 255.694L114.234 170.456L117.263 173.069L43.7249 258.306L40.6962 255.694ZM197.8 173.069L124.262 87.8317L127.291 85.2188L200.829 170.456L197.8 173.069ZM127.191 87.9395L100.45 114.681L97.6212 111.852L124.362 85.111L127.191 87.9395ZM100.533 111.94L152.344 170.437L149.349 173.089L97.5383 114.592L100.533 111.94ZM152.344 173.089L100.533 231.585L97.5383 228.933L149.349 170.437L152.344 173.089ZM100.45 228.845L127.191 255.586L124.362 258.414L97.6212 231.673L100.45 228.845ZM124.262 255.694L197.8 170.456L200.829 173.069L127.291 258.306L124.262 255.694Z" fill="#F4F6F9"/>
</svg>

<svg width="216" height="315" viewBox="0 0 216 315" fill="none" xmlns="http://www.w3.org/2000/svg"><path d="M125.749 175.763L52.211 90.525l-26.742 26.741 51.811 58.497-51.81 58.496L52.21 261l73.539-85.237zm83.566 0l-73.538-85.238-26.742 26.741 51.811 58.497-51.811 58.496L135.777 261l73.538-85.237z" fill="#F4F6F9"/><path d="M125.749 175.763l1.514-1.307 1.127 1.307-1.127 1.306-1.514-1.306zM52.211 90.525l-1.415-1.414 1.523-1.522 1.406 1.63-1.514 1.306zm-26.742 26.741l-1.497 1.326-1.248-1.409 1.331-1.331 1.414 1.414zm51.811 58.497l1.498-1.326 1.174 1.326-1.174 1.326-1.498-1.326zm-51.81 58.496l-1.415 1.414-1.33-1.331 1.247-1.409 1.497 1.326zM52.21 261l1.515 1.306-1.406 1.63-1.523-1.522L52.211 261zm157.105-85.237l1.514-1.307 1.127 1.307-1.127 1.306-1.514-1.306zm-73.538-85.238l-1.415-1.414 1.523-1.522 1.406 1.63-1.514 1.306zm-26.742 26.741l-1.497 1.326-1.248-1.409 1.331-1.331 1.414 1.414zm51.811 58.497l1.498-1.326 1.174 1.326-1.174 1.326-1.498-1.326zm-51.811 58.496l-1.414 1.414-1.331-1.331 1.248-1.409 1.497 1.326zM135.777 261l1.514 1.306-1.406 1.63-1.523-1.522 1.415-1.414zm-11.543-83.931L50.696 91.832l3.029-2.613 73.538 85.237-3.029 2.613zm-70.61-85.13l-26.74 26.742-2.829-2.829 26.741-26.741 2.829 2.828zM26.968 115.94l51.81 58.497-2.994 2.652-51.81-58.497 2.994-2.652zm51.81 61.149l-51.81 58.496-2.995-2.652 51.811-58.496 2.995 2.652zm-51.893 55.756l26.74 26.741-2.828 2.828-26.74-26.741 2.828-2.828zm23.812 26.849l73.538-85.238 3.029 2.613-73.538 85.237-3.029-2.612zM207.8 177.069l-73.538-85.237 3.029-2.613 73.538 85.237-3.029 2.613zm-70.609-85.13l-26.741 26.742-2.829-2.829 26.741-26.741 2.829 2.828zm-26.658 24.001l51.811 58.497-2.995 2.652-51.811-58.497 2.995-2.652zm51.811 61.149l-51.811 58.496-2.995-2.652 51.811-58.496 2.995 2.652zm-51.894 55.756l26.741 26.741-2.829 2.828-26.741-26.741 2.829-2.828zm23.812 26.849l73.538-85.238 3.029 2.613-73.538 85.237-3.029-2.612z" fill="#fff"/><path d="M115.749 171.763L42.211 86.525l-26.742 26.741 51.811 58.497-51.81 58.496L42.21 257l73.539-85.237zm83.566 0l-73.538-85.238-26.742 26.741 51.811 58.497-51.81 58.496L125.776 257l73.538-85.237z" fill="#fff"/><path d="M115.749 171.763l1.514-1.307 1.127 1.307-1.127 1.306-1.514-1.306zM42.211 86.525l-1.415-1.414 1.523-1.522 1.406 1.63-1.514 1.306zm-26.742 26.741l-1.497 1.326-1.248-1.409 1.331-1.331 1.414 1.414zm51.811 58.497l1.498-1.326 1.174 1.326-1.174 1.326-1.498-1.326zm-51.81 58.496l-1.415 1.414-1.33-1.331 1.247-1.409 1.497 1.326zM42.21 257l1.515 1.306-1.406 1.63-1.523-1.522L42.211 257zm157.105-85.237l1.514-1.307 1.127 1.307-1.127 1.306-1.514-1.306zm-73.538-85.238l-1.415-1.414 1.523-1.522 1.406 1.63-1.514 1.306zm-26.742 26.741l-1.497 1.326-1.248-1.409 1.331-1.331 1.415 1.414zm51.811 58.497l1.498-1.326 1.174 1.326-1.174 1.326-1.498-1.326zm-51.81 58.496l-1.415 1.414-1.33-1.331 1.247-1.409 1.498 1.326zM125.776 257l1.514 1.306-1.406 1.63-1.523-1.522 1.415-1.414zm-11.543-83.931L40.696 87.832l3.029-2.613 73.538 85.237-3.029 2.613zm-70.61-85.13l-26.74 26.742-2.829-2.829 26.741-26.741 2.829 2.828zM16.968 111.94l51.81 58.497-2.994 2.652-51.81-58.497 2.994-2.652zm51.81 61.149l-51.81 58.496-2.995-2.652 51.811-58.496 2.995 2.652zm-51.893 55.756l26.74 26.741-2.828 2.828-26.74-26.741 2.828-2.828zm23.812 26.849l73.538-85.238 3.029 2.613-73.538 85.237-3.029-2.612zM197.8 173.069l-73.538-85.237 3.029-2.613 73.538 85.237-3.029 2.613zm-70.609-85.13l-26.741 26.742-2.829-2.829 26.741-26.741 2.829 2.828zm-26.658 24.001l51.811 58.497-2.995 2.652-51.81-58.497 2.994-2.652zm51.811 61.149l-51.811 58.496-2.995-2.652 51.811-58.496 2.995 2.652zm-51.894 55.756l26.741 26.741-2.829 2.828-26.74-26.741 2.828-2.828zm23.812 26.849l73.538-85.238 3.029 2.613-73.538 85.237-3.029-2.612z" fill="#F4F6F9"/></svg>
